flaticon/hand-gestures/tap-56.svg

<svg xmlns="http://www.w3.org/2000/svg" width="32" height="32" viewBox="0 0 24 24">
    <path d="M 18.464844 11.199219 C 18.066406 11.199219 17.703125 11.359375 17.425781 11.601562 C 17.425781 10.640625 16.703125 9.601562 15.664062 9.601562 C 15.265625 9.601562 14.90625 9.761719 14.625 10 C 14.625 9.039062 13.90625 8 12.863281 8 C 12.464844 8 12.105469 8.160156 11.824219 8.398438 L 11.824219 3.601562 C 11.824219 2.640625 11.105469 1.601562 10.066406 1.601562 C 9.023438 1.601562 8.222656 2.640625 8.222656 3.601562 L 8.222656 13.199219 C 7.863281 12.480469 7.425781 11.800781 6.90625 11.320312 C 6.183594 10.601562 4.945312 10.519531 4.222656 11.121094 C 3.984375 11.320312 3.304688 12.078125 4.304688 13.441406 C 5.144531 14.601562 5.542969 17.039062 5.785156 18.480469 L 5.863281 18.878906 C 6.382812 21.839844 7.945312 22.800781 8.625 23.078125 L 8.625 23.601562 C 8.625 23.839844 8.785156 24 9.023438 24 C 9.265625 24 9.425781 23.839844 9.425781 23.601562 L 9.425781 22.800781 C 9.425781 22.601562 9.304688 22.441406 9.105469 22.398438 C 9.023438 22.359375 7.222656 21.921875 6.664062 18.71875 L 6.585938 18.320312 C 6.304688 16.679688 5.90625 14.238281 4.984375 12.960938 C 4.746094 12.640625 4.425781 12.039062 4.785156 11.71875 C 5.144531 11.441406 5.945312 11.441406 6.382812 11.878906 C 7.34375 12.839844 8.222656 15 8.222656 16 C 8.222656 16.238281 8.382812 16.398438 8.625 16.398438 C 8.863281 16.398438 9.023438 16.238281 9.023438 16 L 9.023438 3.601562 C 9.023438 3 9.542969 2.398438 10.066406 2.398438 C 10.625 2.398438 11.023438 3.039062 11.023438 3.601562 L 11.023438 13.601562 C 11.023438 13.839844 11.183594 14 11.425781 14 C 11.664062 14 11.824219 13.839844 11.824219 13.601562 L 11.824219 10 C 11.824219 9.398438 12.34375 8.800781 12.863281 8.800781 C 13.425781 8.800781 13.824219 9.441406 13.824219 10 L 13.824219 14 C 13.824219 14.238281 13.984375 14.398438 14.222656 14.398438 C 14.464844 14.398438 14.625 14.238281 14.625 14 L 14.625 11.601562 C 14.625 11 15.144531 10.398438 15.664062 10.398438 C 16.222656 10.398438 16.625 11.039062 16.625 11.601562 L 16.625 14.800781 C 16.625 15.039062 16.785156 15.199219 17.023438 15.199219 C 17.265625 15.199219 17.425781 15.039062 17.425781 14.800781 L 17.425781 13.199219 C 17.425781 12.601562 17.945312 12 18.464844 12 C 19.023438 12 19.425781 12.640625 19.425781 13.199219 L 19.464844 18.761719 C 19.464844 21.160156 19.464844 21.160156 18.824219 21.921875 C 18.664062 22.078125 18.503906 22.28125 18.304688 22.558594 C 18.265625 22.640625 18.222656 22.71875 18.222656 22.800781 L 18.222656 23.601562 C 18.222656 23.839844 18.382812 24 18.625 24 C 18.824219 24 19.023438 23.839844 19.023438 23.601562 L 19.023438 22.921875 C 19.183594 22.71875 19.304688 22.558594 19.425781 22.398438 C 20.222656 21.398438 20.222656 21.320312 20.222656 18.761719 L 20.222656 13.199219 C 20.226562 12.238281 19.503906 11.199219 18.464844 11.199219 Z M 18.464844 11.199219"/>
    <path d="M14.226562 22C14.425781 22 14.625 21.839844 14.625 21.601562 14.625 21.359375 14.464844 21.199219 14.226562 21.199219L13.023438 21.199219C12.785156 21.199219 12.625 21.359375 12.625 21.601562 12.625 21.839844 12.785156 22 13.023438 22zM14.625 22.800781L12.625 22.800781C12.382812 22.800781 12.226562 22.960938 12.226562 23.199219 12.226562 23.441406 12.382812 23.601562 12.625 23.601562L14.625 23.601562C14.824219 23.601562 15.023438 23.441406 15.023438 23.199219 15.023438 22.960938 14.863281 22.800781 14.625 22.800781zM6.984375 4.800781C7.023438 4.800781 7.066406 4.800781 7.105469 4.800781 7.304688 4.761719 7.425781 4.519531 7.382812 4.320312 7.34375 4.078125 7.304688 3.839844 7.304688 3.601562 7.304688 2.039062 8.542969.800781 10.105469.800781 11.664062.800781 12.90625 2.039062 12.90625 3.601562 12.90625 3.839844 12.863281 4.039062 12.824219 4.28125 12.746094 4.480469 12.90625 4.71875 13.105469 4.761719 13.304688 4.839844 13.542969 4.679688 13.585938 4.480469 13.664062 4.199219 13.703125 3.878906 13.703125 3.601562 13.703125 3.464844 13.695312 3.332031 13.683594 3.199219L15.664062 3.199219 15.144531 3.71875C14.984375 3.878906 14.984375 4.121094 15.144531 4.28125 15.226562 4.359375 15.304688 4.398438 15.425781 4.398438 15.542969 4.398438 15.625 4.359375 15.703125 4.28125L16.835938 3.148438C16.953125 3.082031 17.023438 2.960938 17.023438 2.800781 17.023438 2.640625 16.953125 2.515625 16.835938 2.453125L15.703125 1.320312C15.542969 1.160156 15.304688 1.160156 15.144531 1.320312 14.984375 1.480469 14.984375 1.71875 15.144531 1.878906L15.664062 2.398438 13.5 2.398438C13.011719.996094 11.683594 0 10.105469 0 8.105469 0 6.503906 1.601562 6.503906 3.601562 6.503906 3.921875 6.542969 4.199219 6.585938 4.519531 6.664062 4.679688 6.824219 4.800781 6.984375 4.800781zM6.984375 4.800781"/>
</svg>

<svg xmlns="http://www.w3.org/2000/svg" width="32" height="32" viewBox="0 0 24 24">
    <path d="M18.465 11.2c-.399 0-.762.16-1.04.402 0-.961-.722-2-1.76-2-.4 0-.759.16-1.04.398 0-.96-.719-2-1.762-2-.398 0-.758.16-1.039.398V3.602c0-.961-.719-2-1.758-2-1.043 0-1.843 1.039-1.843 2v9.597c-.36-.719-.797-1.398-1.317-1.879-.722-.718-1.96-.8-2.683-.199-.239.2-.918.957.082 2.32.84 1.16 1.238 3.598 1.48 5.04l.078.398c.52 2.96 2.082 3.922 2.762 4.2v.523c0 .238.16.398.398.398.243 0 .403-.16.403-.398V22.8c0-.2-.121-.36-.32-.403-.083-.039-1.883-.476-2.442-3.68l-.078-.398c-.281-1.64-.68-4.082-1.602-5.36-.238-.32-.558-.92-.199-1.241.36-.278 1.16-.278 1.598.16.96.96 1.84 3.121 1.84 4.121 0 .238.16.398.402.398.238 0 .398-.16.398-.398V3.602c0-.602.52-1.204 1.043-1.204.559 0 .957.641.957 1.204v10c0 .238.16.398.403.398.238 0 .398-.16.398-.398V10c0-.602.52-1.2 1.04-1.2.562 0 .96.641.96 1.2v4c0 .238.16.398.399.398.242 0 .402-.16.402-.398v-2.398c0-.602.52-1.204 1.04-1.204.558 0 .96.641.96 1.204V14.8c0 .238.16.398.398.398.243 0 .403-.16.403-.398v-1.602c0-.597.52-1.199 1.039-1.199.558 0 .96.64.96 1.2l.04 5.562c0 2.398 0 2.398-.64 3.16-.16.156-.321.36-.52.637-.04.082-.082.16-.082.242v.8c0 .239.16.399.402.399a.4.4 0 0 0 .398-.398v-.68c.16-.203.282-.363.403-.524.797-1 .797-1.078.797-3.636v-5.563c.004-.96-.72-2-1.758-2zm0 0"/>
    <path d="M14.227 22a.4.4 0 0 0 .398-.398c0-.243-.16-.403-.398-.403h-1.204c-.238 0-.398.16-.398.403 0 .238.16.398.398.398zm0 0M14.625 22.8h-2c-.242 0-.398.16-.398.4 0 .241.156.402.398.402h2a.4.4 0 0 0 .398-.403c0-.238-.16-.398-.398-.398zm0 0M6.984 4.8h.121c.2-.038.32-.28.278-.48-.04-.242-.078-.48-.078-.718C7.305 2.039 8.543.8 10.105.8c1.56 0 2.801 1.238 2.801 2.8 0 .239-.043.438-.082.68-.078.2.082.438.281.48.2.079.438-.081.48-.28a3.42 3.42 0 0 0 .118-.88c0-.136-.008-.269-.02-.402h1.981l-.52.52a.39.39 0 0 0 0 .562c.083.078.16.117.282.117.117 0 .199-.039.277-.117l1.133-1.133a.38.38 0 0 0 .187-.347c0-.16-.07-.285-.187-.348L15.703 1.32a.385.385 0 0 0-.558 0 .385.385 0 0 0 0 .559l.52.52H13.5A3.578 3.578 0 0 0 10.105 0c-2 0-3.601 1.602-3.601 3.602 0 .32.039.597.082.918.078.16.238.28.398.28zm0 0"/>
</svg>
